X:18479
T:Waltz. CJF.164
M:3/8
L:1/16
Q:60
C: "from Mr Campbell".
S: C.J.Fox MS, 1829/33, Beverley,E.Yorks.
R:Waltz
O:England
A:East Yorkshire
B:Kidson Coll.Mitchell Lib.M1805
N:On the title line "from Mr Campbell". On the stave after the tune, "C J
N:Fox". - PJ
Z:P J Headford 2000
K:D
A2|FAdAdA|FAdAdA|g2e2c2|(df) A2A2|\
FAdAdA|FAdAdA|g2e2c2|d4:||:!A2|
a4(fd)|A2A2A2|g4(ec)|A2A2A2|a4(fd)|A2A2A2|gfedce|d4:||


